shared/images/iconfont/53-kb-iconfont-identity-website-16.svg

<?xml version="1.0" encoding="UTF-8"?>
<svg width="16px" height="16px" viewBox="0 0 16 16" version="1.1" xmlns="http://www.w3.org/2000/svg" xmlns:xlink="http://www.w3.org/1999/xlink">
    <!-- Generator: sketchtool 57.1 (101010) - https://sketch.com -->
    <title>1B751B0B-6632-4F3C-8405-E4CE8CA1C813</title>
    <desc>Created with sketchtool.</desc>
    <g id="Symbols" stroke="none" stroke-width="1" fill="none" fill-rule="evenodd">
        <g id="53-kb-iconfont-identity-website-16">
            <g>
                <rect id="icon-area" opacity="0" x="0" y="0" width="16" height="16"></rect>
                <path d="M8,0 C12.418278,0 16,3.581722 16,8 C16,12.418278 12.418278,16 8,16 C3.581722,16 0,12.418278 0,8 C0,3.581722 3.581722,0 8,0 Z M1.54124872,8.73635524 C1.85047137,11.4788067 3.86619094,13.7045074 6.50133324,14.3263829 C5.33883147,12.6658531 4.69322268,10.7990746 4.56962739,8.73920619 L1.54124872,8.73635524 Z M9.63821583,14.2908914 L9.75474339,14.2603836 C12.2594868,13.5597806 14.1533936,11.3963945 14.4572643,8.74942451 L11.5449703,8.74723951 C11.4210524,10.7895525 10.7837374,12.6419425 9.63821583,14.2908914 Z M14.4572643,8.74942451 L6.07288577,8.74200653 C6.20577551,10.6710303 6.86459904,12.3862156 8.0561113,13.905155 C9.24964208,12.387306 9.90838989,10.6734331 10.0419189,8.74602663 L6.07288577,8.74200653 Z M9.65189434,1.71176232 L9.79259889,1.92102699 C10.8400482,3.52013003 11.4255756,5.29919352 11.5446189,7.24676119 L14.4571488,7.24957049 C14.1487632,4.56694914 12.2071978,2.38119916 9.65189434,1.71176232 Z M8.05841272,2.07284723 L7.86992364,2.32035501 C6.79897388,3.78507623 6.20225827,5.42059795 6.07402747,7.24135744 L10.0413375,7.24538021 C9.9064711,5.31975292 9.24776217,3.60126546 8.05841272,2.07284723 Z M6.4860448,1.6782065 L6.39125875,1.70061624 C3.81884282,2.35558079 1.85930564,4.54478485 1.54436594,7.23650968 L4.57089579,7.23972373 C4.69703564,5.19578161 5.33717759,3.3375256 6.4860448,1.6782065 Z" id="Combined-Shape" fill="#000000"></path>
            </g>
        </g>
    </g>
</svg>

<svg xmlns="http://www.w3.org/2000/svg" width="16" height="16" viewBox="0 0 16 16">
    <path fill="#000" fill-rule="evenodd" d="M9.637 14.292a6.506 6.506 0 0 0 4.82-5.542l-2.912-.003c-.124 2.043-.761 3.896-1.908 5.545zm.405-5.547l-3.97-.004a9.195 9.195 0 0 0 1.986 5.166 9.195 9.195 0 0 0 1.984-5.162zm-.39-7.033c1.136 1.653 1.768 3.502 1.893 5.535l2.912.003a6.506 6.506 0 0 0-4.805-5.538zm.39 5.533a9.29 9.29 0 0 0-1.984-5.173 9.29 9.29 0 0 0-1.984 5.17l3.967.003zm-3.54 7.081C5.339 12.666 4.693 10.8 4.57 8.74L1.54 8.737a6.505 6.505 0 0 0 4.96 5.59zM6.487 1.677a6.506 6.506 0 0 0-4.943 5.56l3.027.003c.126-2.045.766-3.903 1.916-5.563zM8 16A8 8 0 1 1 8 0a8 8 0 0 1 0 16z"/>
</svg>
